X:1
T:Fran Havero
C:traditionell
%%textfont Helvetica-Narrow 10pt
%%begintext align
B:"Encyclopedia Blowzabellica", The Blowzabella tune and dance book, Dragonfly music, Newbiggin by the Sea, 1987
%%endtext 
F:http://simonwascher.info
Z:abc transcription Simon Wascher
M:2/4
L:1/16
K:Dm
D2DE FGFE | D2A2A4 | d^cde f2f2 | efe^c A2A2 |
D2DE FGFE | D2A2A4 | d^cde f2f2 | e2e^cd4 :|
|:\
a2a^g a2a2 | f=g(3f/g/f/2e f2f2 | e2e^c A2A2 | FGFE (3EFED2 |
a2a^g a2a2 | f=g(3f/g/f/2e f2f2 | e2e^c Acec | d2d2d4 :| 
%%wordsfont Times-Italic 11pt
W:aus Simon Waschers TradArchiv
